public/avatar/hat/189.svg

<svg xmlns:xlink="http://www.w3.org/1999/xlink" height="92.9" width="100.7" xmlns="http://www.w3.org/2000/svg"><use height="35.65" transform="translate(18.4 34.9)" width="39.85" xlink:href="#a"/><defs><g id="a" fill-rule="evenodd"><path d="m12.65 8.25.2.1.1.2q.45.95 6.4 9.5l.25.35-.3.25q-.85.7-3.8.85l.3.9h-.65q-4.85.35-7.15.1l-.45-.05.95-12.9.05-.2.2-.15 3.9 1.05" fill="#3e0202" transform="translate(20.25 14.85)"/><path d="m9.45 8.15 2.7.8q.6 1.35 6.1 9.1-.9.75-4.15.4l.35 1-5.85.1.85-11.4" fill="#d80000" transform="translate(20.25 14.85)"/><path d="m9.75 9.75.15 9.5-.95.1q.5-8.35.8-9.6M13.4 15l-1.25-4.15 1.35 3.35.9 2 .95 2.05-1.1-.05-.85-3.2" fill="#ff6e6e" transform="translate(20.25 14.85)"/><path d="M10.65 8.35V8.3q.85 0 .85.3.3 2.9 2.95 10.85l-3.15.05-.4-7.95-.25-3.2m1.15.5q.15-.6 3.1 3.95l3.35 5.3q-.8.65-2.25.35l-2-5.05-2.2-4.55" fill="#960000" transform="translate(20.25 14.85)"/><path d="m-9.4 7.35.2.15.05.25.95 12.85-.45.1q-2.3.25-7.15-.1h-.65l.3-.95q-2.95 0-3.8-.8l-.3-.25.2-.4 6.4-9.45.1-.25.25-.05 3.9-1.1" fill="#3e0202" transform="translate(20.25 14.85)"/><path d="m-10.1 8.3.8 11.4-5.8-.1.3-1q-3.3.4-4.1-.35 5.5-7.75 6.05-9.1 2.7-1.1 2.75-.85" fill="#d80000" transform="translate(20.25 14.85)"/><path d="m-11.1 11 .3-2.4.75-.15q.15.4.75 11.25l-1.75.1-1.05-.05h-.9l.35-1.25.75-3.4.8-4.1m-5.75 7.7 2.35-3.5q.7-1.15 1.3-2.95l-.3 1.45-.45 2.3-.9 2.75-2-.05" fill="#960000" transform="translate(20.25 14.85)"/><path d="m-18.45 18 3.6-5.15-2.55 5.35q-.8.4-1.1-.15l.05-.05m3.85 1.4q1-1.5 1.85-6.65l.25-2.05q-.05 1.45-.65 5.15-.6 3.6-.8 3.6h-.65v-.05" fill="#ff6e6e" transform="translate(20.25 14.85)"/><path d="M-10.35-4.55q5.35-3 9.6-3.35Q1.9-8.3 7.9-5.7q7.1 3.05 9.35 7.55l.05.25q-.3 4.6-3.85 7.3l-.45.1Q6.3 7.65-2.35 7.9q-7.8.25-11.4 1.8h-.5q-4.05-2.45-3.7-6.6V3q1.4-4.05 7.6-7.55" fill="#3e0202" transform="translate(20.25 14.85)"/><path d="M-9.8-3.85q5.15-2.85 9.35-3.2 2.4-.35 7.8 2 6.6 2.9 8.95 7.2Q16 6.3 13 8.5 6.4 6.7-2.15 6.9q-7.9.25-11.7 1.85-3.35-2-3.15-5.5 1.35-3.85 7.2-7.1" fill="#d80000" transform="translate(20.25 14.85)"/><path d="M1.85 7Q-7.5 6.55-14 8.75q-3.05-2.15-3.05-5.1Q-3.2 4.9 5.1 2.7 14.25.3 8.15-4.75q6.2 3.35 8.15 6.9-.35 4.1-3.3 6.35Q8.7 7.3 1.85 7" fill="#960000" transform="translate(20.25 14.85)"/><path d="M-16.35 2.85q0-.8 1.15-2.15 2.75-3.05 7.45-5.1Q-10.4-2.35-13.3.9l-2 2.05q-1.15.55-1.05-.1" fill="#ff6e6e" transform="translate(20.25 14.85)"/><path d="M6.25 8.5q-8.5-1.3-16.85.7l-3.5 1q-.9.35-1.5-.35t-.25-1.35q1.8-1.25 4.25-2.1Q-4.9 4 4 4.85q8.15.75 10.65 3.2.4.3.2 1.25-.25 1-1.2.85-3.1-1-7.4-1.65" transform="translate(20.25 14.85)"/><path d="M-14.75 8.6q1.05-.6 2.85-1.25 1.25.1.55 1.3l-2.8.85q-.85.2-.6-.9m8.3-2.7q.4.05.55.7.1.7-.2 1l-3.25.65q-.65-.05-.9-.65-.2-.55.15-.85l3.65-.85m4.55-.45q.55.15.8 1.75l-2.9.2q-.65-.1-.95-.85-.25-.7.1-.85l2.95-.25m4.35.05q.3.3.15.9-.15.65-.7.9l-2.05-.1-.3-1.8 2.9.1m1.65.1L7 6q-.45.85-.75 1.8l-2.3-.3q-.45-.35-.35-1 .05-.65.5-.9m4.1.65 1.9.45q.25.4.05 1-.25.65-.85.7l-1.45-.3q-.4-.3-.2-1 .15-.6.55-.85m5.4 2 .4.7q0 .5-.95.35l-1.75-.35q-.95-1.25.2-1.75 1.3.45 2.1 1.05" fill="#037df2" transform="translate(20.25 14.85)"/><path d="M6.2-8.25v.15l-.15.4L4.7-5.65l.75-.2q.5-.1.6.45.05.3-.45.95-3.3 4.4-3.1 8.7.1 1.9-2.65 2-2.85.2-3.05-1.8-2.5-7.15-4-8.9l-.15-.4v-.05l.25-.4.65-.15-1.05-.95-.25-.35-.05-.4q.05-1.6 1.75-3.75 1.85-2.35 4.7-3.95h.5Q5.1-11.9 6.2-8.25" fill="#030a36" transform="translate(20.25 14.85)"/><path d="M-1.05-13.8q4.4 1.75 6.4 5.65Q4.2-7 3.15-4.25l1.55-.6-1.4 2.1Q1.65.2 1.4 4.4q.05.85-1.7.85-1.7 0-1.8-.9-2.65-7.35-4.1-9 1.1-.1 1.5.4-1.2-2.35-2.25-2.9.15-1.4 1.85-3.45 1.9-2.25 4.05-3.2" fill="#037df2" transform="translate(20.25 14.85)"/><path d="M4.4-8.3Q4-7.95 3-6l-.85 2.4.95-.3-.8 1.45Q1.45-.4 1.5.05 1.15-.3.15-.3L.6-4.5q-.15-.4-.9-.4.6-3.5 0-7.55 2.8.65 4.7 4.15" fill="#0950b7" transform="translate(20.25 14.85)"/><path d="m-1.3-12.9.1-.2.15-.1q.25 0 .3 2.35l.15 5.5-.5.45v.05q.1.5 1.1.75.15.25-.25 1l-.1 1.3.1 5.55L-.5 4l-.25-.3-.1-5.5.15-1.55.3-.5-1.25-.9.55-.7-.2-7.45" fill="#030a36" transform="translate(20.25 14.85)"/><path d="m-4.05-3.25 1.5 2.75Q-3-.6-3.2-.15l-.9-2L-5.3-4l1.7.3q-2.2-2.75-2.75-3.85.5-1.3 1.8-2.85 1.45-1.75 2.5-2.3l-2.2 2.4q-1.3 1.45-1.1 2.65.15.9 2.55 4.55l-1.25-.15" fill="#5bbfff" transform="translate(20.25 14.85)"/><path d="M-.55 10.3q-1.85 0-3.1-1.75-1.3-1.8-1.3-4.3T-3.65 0q1.25-1.75 3.1-1.75 1.8 0 3.1 1.75 1.3 1.8 1.3 4.25 0 2.5-1.3 4.25-1.25 1.8-3.1 1.8" fill="#351e02" transform="translate(20.25 14.85)"/><path d="M2.75 4.25q0 1.95-.95 3.35Q.8 9-.55 9q-1.4 0-2.35-1.4-.95-1.4-.95-3.35 0-1.95.95-3.35.95-1.35 2.35-1.4Q.8-.5 1.8.9q.95 1.4.95 3.35" fill="#f8c606" transform="translate(20.25 14.85)"/><path d="M1.3 2.3q.7-.55.95-.65 1.4 2.3 0 5.05l-.95-.65.05-.85.1-1.4-.15-1.5m-4.05 2.95Q-1.55 6.65-1.6 7q-.6.25-1.15.8-.9-1.05-1.05-2.6l1.05.05" fill="#b57a06" transform="translate(20.25 14.85)"/><path d="M-.55.8q2.4 0 2.4 3.45 0 3.4-2.4 3.5Q-3 7.75-3 4.25-3 .8-.55.8" fill="#ff7d00" transform="translate(20.25 14.85)"/><path d="M-.6 1.5q-1.75 0-1.75 2.55 0 2.5 1.75 2.5t1.75-2.5Q1.15 1.5-.6 1.5m.1 6.25q-2.45 0-2.45-3.5Q-2.95.8-.5.8q2.4 0 2.4 3.45 0 3.4-2.4 3.5" fill="#d63600" transform="translate(20.25 14.85)"/><path d="M-.3 3.4Q1 3.4 1 5.15q0 1.8-1.3 1.8t-1.3-1.8q0-1.75 1.3-1.75" fill="#d63600" transform="translate(20.25 14.85)"/><path d="M-1.1 1.5Q.15 1.5.15 2.7q0 1.25-1.25 1.25-1.2 0-1.2-1.25 0-1.2 1.2-1.2" fill="#fff" transform="translate(20.25 14.85)"/><path d="m-3.55 3.7.15-.9.25-1q.2-.7 1.05-1.35.65-.45 1.2-.6Q.25-.3.1.3q-2.05.35-2.55 1.1l-.65 1.5q-.3.95-.45.8" fill="#fff" transform="translate(20.25 14.85)"/></g></defs></svg>

<?xml version="1.0" encoding="UTF-8" standalone="no"?>
<svg xmlns:xlink="http://www.w3.org/1999/xlink" height="92.9px" width="100.7px" xmlns="http://www.w3.org/2000/svg">
  <g transform="matrix(1.0, 0.0, 0.0, 1.0, 38.65, 49.75)">
    <use height="35.65" transform="matrix(1.0, 0.0, 0.0, 1.0, -20.25, -14.85)" width="39.85" xlink:href="#shape0"/>
  </g>
  <defs>
    <g id="shape0" transform="matrix(1.0, 0.0, 0.0, 1.0, 20.25, 14.85)">
      <path d="M12.65 8.25 L12.85 8.35 12.95 8.55 Q13.4 9.5 19.35 18.05 L19.6 18.4 19.3 18.65 Q18.45 19.35 15.5 19.5 L15.8 20.4 15.15 20.4 Q10.3 20.75 8.0 20.5 L7.55 20.45 8.5 7.55 8.55 7.35 8.75 7.2 12.65 8.25" fill="#3e0202" fill-rule="evenodd" stroke="none"/>
      <path d="M9.45 8.15 L12.15 8.95 Q12.75 10.3 18.25 18.05 17.35 18.8 14.1 18.45 L14.45 19.45 8.6 19.55 9.45 8.15" fill="#d80000" fill-rule="evenodd" stroke="none"/>
      <path d="M9.75 9.75 L9.9 19.25 8.95 19.35 Q9.45 11.0 9.75 9.75" fill="#ff6e6e" fill-rule="evenodd" stroke="none"/>
      <path d="M13.4 15.0 L12.15 10.85 13.5 14.2 14.4 16.2 15.35 18.25 14.25 18.2 13.4 15.0" fill="#ff6e6e" fill-rule="evenodd" stroke="none"/>
      <path d="M10.65 8.35 L10.65 8.3 Q11.5 8.3 11.5 8.6 11.8 11.5 14.45 19.45 L11.3 19.5 10.9 11.55 10.65 8.35" fill="#960000" fill-rule="evenodd" stroke="none"/>
      <path d="M11.8 8.85 Q11.95 8.25 14.9 12.8 L18.25 18.1 Q17.45 18.75 16.0 18.45 L14.0 13.4 11.8 8.85" fill="#960000" fill-rule="evenodd" stroke="none"/>
      <path d="M-9.4 7.35 L-9.2 7.5 -9.15 7.75 -8.2 20.6 -8.65 20.7 Q-10.95 20.95 -15.8 20.6 L-16.45 20.6 -16.15 19.65 Q-19.1 19.65 -19.95 18.85 L-20.25 18.6 -20.05 18.2 -13.65 8.75 -13.55 8.5 -13.3 8.45 -9.4 7.35" fill="#3e0202" fill-rule="evenodd" stroke="none"/>
      <path d="M-10.1 8.3 L-9.3 19.7 -15.1 19.6 -14.8 18.6 Q-18.1 19.0 -18.9 18.25 -13.4 10.5 -12.85 9.15 -10.15 8.05 -10.1 8.3" fill="#d80000" fill-rule="evenodd" stroke="none"/>
      <path d="M-11.1 11.0 L-10.8 8.6 -10.05 8.45 Q-9.9 8.85 -9.3 19.7 L-11.05 19.8 -12.1 19.75 -13.0 19.75 -12.65 18.5 -11.9 15.1 -11.1 11.0" fill="#960000" fill-rule="evenodd" stroke="none"/>
      <path d="M-16.85 18.7 L-14.5 15.2 Q-13.8 14.05 -13.2 12.25 L-13.5 13.7 -13.95 16.0 -14.85 18.75 -16.85 18.7" fill="#960000" fill-rule="evenodd" stroke="none"/>
      <path d="M-18.45 18.0 L-14.85 12.85 -17.4 18.2 Q-18.2 18.6 -18.5 18.05 L-18.45 18.0" fill="#ff6e6e" fill-rule="evenodd" stroke="none"/>
      <path d="M-14.6 19.4 Q-13.6 17.9 -12.75 12.75 L-12.5 10.7 Q-12.55 12.15 -13.15 15.85 -13.75 19.45 -13.95 19.45 L-14.6 19.45 -14.6 19.4" fill="#ff6e6e" fill-rule="evenodd" stroke="none"/>
      <path d="M-10.35 -4.55 Q-5.0 -7.55 -0.75 -7.9 1.9 -8.3 7.9 -5.7 15.0 -2.65 17.25 1.85 L17.3 2.1 Q17.0 6.7 13.45 9.4 L13.0 9.5 Q6.3 7.65 -2.35 7.9 -10.15 8.15 -13.75 9.7 L-14.25 9.7 Q-18.3 7.25 -17.95 3.1 L-17.95 3.0 Q-16.55 -1.05 -10.35 -4.55" fill="#3e0202" fill-rule="evenodd" stroke="none"/>
      <path d="M-9.8 -3.85 Q-4.65 -6.7 -0.45 -7.05 1.95 -7.4 7.35 -5.05 13.95 -2.15 16.3 2.15 16.0 6.3 13.0 8.5 6.4 6.7 -2.15 6.9 -10.05 7.15 -13.85 8.75 -17.2 6.75 -17.0 3.25 -15.65 -0.6 -9.8 -3.85" fill="#d80000" fill-rule="evenodd" stroke="none"/>
      <path d="M1.85 7.0 Q-7.5 6.55 -14.0 8.75 -17.05 6.6 -17.05 3.65 -3.2 4.9 5.1 2.7 14.25 0.3 8.15 -4.75 14.35 -1.4 16.3 2.15 15.95 6.25 13.0 8.5 8.7 7.3 1.85 7.0" fill="#960000" fill-rule="evenodd" stroke="none"/>
      <path d="M-16.35 2.85 Q-16.35 2.05 -15.2 0.7 -12.45 -2.35 -7.75 -4.4 -10.4 -2.35 -13.3 0.9 L-15.3 2.95 Q-16.45 3.5 -16.35 2.85" fill="#ff6e6e" fill-rule="evenodd" stroke="none"/>
      <path d="M6.25 8.5 Q-2.25 7.2 -10.6 9.2 L-14.1 10.2 Q-15.0 10.55 -15.6 9.85 -16.2 9.15 -15.85 8.5 -14.05 7.25 -11.6 6.4 -4.9 4.0 4.0 4.85 12.15 5.6 14.65 8.05 15.05 8.35 14.85 9.3 14.6 10.3 13.65 10.15 10.55 9.15 6.25 8.5" fill="#000000" fill-rule="evenodd" stroke="none"/>
      <path d="M-14.75 8.6 Q-13.7 8.0 -11.9 7.35 -10.65 7.45 -11.35 8.65 L-14.15 9.5 Q-15.0 9.7 -14.75 8.6" fill="#037df2" fill-rule="evenodd" stroke="none"/>
      <path d="M-6.45 5.9 Q-6.05 5.95 -5.9 6.6 -5.8 7.3 -6.1 7.6 L-9.35 8.25 Q-10.0 8.2 -10.25 7.6 -10.45 7.05 -10.1 6.75 L-6.45 5.9" fill="#037df2" fill-rule="evenodd" stroke="none"/>
      <path d="M-1.9 5.45 Q-1.35 5.6 -1.1 7.2 L-4.0 7.4 Q-4.65 7.3 -4.95 6.55 -5.2 5.85 -4.85 5.7 L-1.9 5.45" fill="#037df2" fill-rule="evenodd" stroke="none"/>
      <path d="M2.45 5.5 Q2.75 5.8 2.6 6.4 2.45 7.05 1.9 7.3 L-0.15 7.2 -0.45 5.4 2.45 5.5" fill="#037df2" fill-rule="evenodd" stroke="none"/>
      <path d="M4.1 5.6 L7.0 6.0 Q6.55 6.85 6.25 7.8 L3.95 7.5 Q3.5 7.15 3.6 6.5 3.65 5.85 4.1 5.6" fill="#037df2" fill-rule="evenodd" stroke="none"/>
      <path d="M8.2 6.25 L10.1 6.7 Q10.35 7.1 10.15 7.7 9.9 8.35 9.3 8.4 L7.85 8.1 Q7.45 7.8 7.65 7.1 7.8 6.5 8.2 6.25" fill="#037df2" fill-rule="evenodd" stroke="none"/>
      <path d="M13.6 8.25 L14.0 8.95 Q14.0 9.45 13.05 9.3 L11.3 8.95 Q10.35 7.7 11.5 7.2 12.8 7.65 13.6 8.25" fill="#037df2" fill-rule="evenodd" stroke="none"/>
      <path d="M6.2 -8.25 L6.2 -8.1 6.05 -7.7 4.7 -5.65 5.45 -5.85 Q5.95 -5.95 6.05 -5.4 6.1 -5.1 5.6 -4.45 2.3 -0.05 2.5 4.25 2.6 6.15 -0.15 6.25 -3.0 6.45 -3.2 4.45 -5.7 -2.7 -7.2 -4.45 L-7.35 -4.85 -7.35 -4.9 -7.1 -5.3 -6.45 -5.45 -7.5 -6.4 -7.75 -6.75 -7.8 -7.15 Q-7.75 -8.75 -6.05 -10.9 -4.2 -13.25 -1.35 -14.85 L-0.85 -14.85 Q5.1 -11.9 6.2 -8.25" fill="#030a36" fill-rule="evenodd" stroke="none"/>
      <path d="M-1.05 -13.8 Q3.35 -12.05 5.35 -8.15 4.2 -7.0 3.15 -4.25 L4.7 -4.85 3.3 -2.75 Q1.65 0.2 1.4 4.4 1.45 5.25 -0.3 5.25 -2.0 5.25 -2.1 4.35 -4.75 -3.0 -6.2 -4.65 -5.1 -4.75 -4.7 -4.25 -5.9 -6.6 -6.95 -7.15 -6.8 -8.55 -5.1 -10.6 -3.2 -12.85 -1.05 -13.8" fill="#037df2" fill-rule="evenodd" stroke="none"/>
      <path d="M4.4 -8.3 Q4.0 -7.95 3.0 -6.0 L2.15 -3.6 3.1 -3.9 2.3 -2.45 Q1.45 -0.4 1.5 0.05 1.15 -0.3 0.15 -0.3 L0.6 -4.5 Q0.45 -4.9 -0.3 -4.9 0.3 -8.4 -0.3 -12.45 2.5 -11.8 4.4 -8.3" fill="#0950b7" fill-rule="evenodd" stroke="none"/>
      <path d="M-1.3 -12.9 L-1.2 -13.1 -1.05 -13.2 Q-0.8 -13.2 -0.75 -10.85 L-0.6 -5.35 -1.1 -4.9 -1.1 -4.85 Q-1.0 -4.35 0.0 -4.1 0.15 -3.85 -0.25 -3.1 L-0.35 -1.8 -0.25 3.75 -0.5 4.0 -0.75 3.7 -0.85 -1.8 -0.7 -3.35 -0.4 -3.85 -1.65 -4.75 -1.1 -5.45 -1.3 -12.9" fill="#030a36" fill-rule="evenodd" stroke="none"/>
      <path d="M-4.05 -3.25 L-2.55 -0.5 Q-3.0 -0.6 -3.2 -0.15 L-4.1 -2.15 -5.3 -4.0 -3.6 -3.7 Q-5.8 -6.45 -6.35 -7.55 -5.85 -8.85 -4.55 -10.4 -3.1 -12.15 -2.05 -12.7 L-4.25 -10.3 Q-5.55 -8.85 -5.35 -7.65 -5.2 -6.75 -2.8 -3.1 L-4.05 -3.25" fill="#5bbfff" fill-rule="evenodd" stroke="none"/>
      <path d="M-0.55 10.3 Q-2.4 10.3 -3.65 8.55 -4.95 6.75 -4.95 4.25 -4.95 1.75 -3.65 0.0 -2.4 -1.75 -0.55 -1.75 1.25 -1.75 2.55 0.0 3.85 1.8 3.85 4.25 3.85 6.75 2.55 8.5 1.3 10.3 -0.55 10.3" fill="#351e02" fill-rule="evenodd" stroke="none"/>
      <path d="M2.75 4.25 Q2.75 6.2 1.8 7.6 0.8 9.0 -0.55 9.0 -1.95 9.0 -2.9 7.6 -3.85 6.2 -3.85 4.25 -3.85 2.3 -2.9 0.9 -1.95 -0.45 -0.55 -0.5 0.8 -0.5 1.8 0.9 2.75 2.3 2.75 4.25" fill="#f8c606" fill-rule="evenodd" stroke="none"/>
      <path d="M1.3 2.3 Q2.0 1.75 2.25 1.65 3.65 3.95 2.25 6.7 L1.3 6.05 1.35 5.2 1.45 3.8 1.3 2.3" fill="#b57a06" fill-rule="evenodd" stroke="none"/>
      <path d="M-2.75 5.25 Q-1.55 6.65 -1.6 7.0 -2.2 7.25 -2.75 7.8 -3.65 6.75 -3.8 5.2 L-2.75 5.25" fill="#b57a06" fill-rule="evenodd" stroke="none"/>
      <path d="M-0.55 0.8 Q1.85 0.8 1.85 4.25 1.85 7.65 -0.55 7.75 -3.0 7.75 -3.0 4.25 -3.0 0.8 -0.55 0.8" fill="#ff7d00" fill-rule="evenodd" stroke="none"/>
      <path d="M-0.6 1.5 Q-2.35 1.5 -2.35 4.05 -2.35 6.55 -0.6 6.55 1.15 6.55 1.15 4.05 1.15 1.5 -0.6 1.5 M-0.5 7.75 Q-2.95 7.75 -2.95 4.25 -2.95 0.8 -0.5 0.8 1.9 0.8 1.9 4.25 1.9 7.65 -0.5 7.75" fill="#d63600" fill-rule="evenodd" stroke="none"/>
      <path d="M-0.3 3.4 Q1.0 3.4 1.0 5.15 1.0 6.95 -0.3 6.95 -1.6 6.95 -1.6 5.15 -1.6 3.4 -0.3 3.4" fill="#d63600" fill-rule="evenodd" stroke="none"/>
      <path d="M-1.1 1.5 Q0.15 1.5 0.15 2.7 0.15 3.95 -1.1 3.95 -2.3 3.95 -2.3 2.7 -2.3 1.5 -1.1 1.5" fill="#ffffff" fill-rule="evenodd" stroke="none"/>
      <path d="M-3.55 3.7 L-3.4 2.8 -3.15 1.8 Q-2.95 1.1 -2.1 0.45 -1.45 0.0 -0.9 -0.15 0.25 -0.3 0.1 0.3 -1.95 0.65 -2.45 1.4 L-3.1 2.9 Q-3.4 3.85 -3.55 3.7" fill="#ffffff" fill-rule="evenodd" stroke="none"/>
    </g>
  </defs>
</svg>
